!!!COM:	Anonymous
!!!OTL:	Rolet / La tricot&eacute;e / Maistre Pi&egrave;re
!!!AGN:	Song; Chanson
!!!SCT:	Ano3034
!!!SCA:	Ano3034
!!!SMS:	Escorial B
!!!folio:	
!!!voices:	3
**kern	**kern	**kern
*staff3	*staff2	*staff1
*Ivox	*Ivox	*Ivox
*I"Tenor	*I"Contratenor	*I"Superius
*I'T	*I'Ct	*I'S
*clefF4	*clefGv2	*clefG2
*k[b-]	*k[b-]	*k[]
*M2/1	*M2/1	*M2/1
*met(C)	*met(C)	*met(C)
=1-	=1-	=1-
0r	1f	1f
.	2e	1g
.	2e	.
=2	=2	=2
0r	2.f	2a
.	.	1cc
.	4e	.
.	2c	.
.	2d	2b-i
=3	=3	=3
0r	2f	2a
.	2f	2f
.	2e	2g
.	2e	2b-i
=4	=4	=4
0r	2.f	2a
.	.	4g
.	4e	4f
.	1c	1e
=5	=5	=5
2c	0F	2a
2c	.	2a
2.c	.	2a
.	.	2a
4B-	.	.
=6	=6	=6
1A	2c	2a
.	1c	1f
1G	.	.
.	2B-	2e
=7	=7	=7
0F	1c	2.f
.	.	4e
.	1r	1c
=8	=8	=8
1D	2f	1r
.	2f	.
1C	2e	1g
.	2e	.
=9	=9	=9
1D	1d	1f
2A	2c	2e
2F	2d	2f
=10	=10	=10
2E	2e	2g
1G	2d	2.b-
.	2d	.
.	.	4a
2A	2c	[2a
=11	=11	=11
1E	1B-	2a]
.	.	2g
1e	1A	[1a
=12	=12	=12
1A	1F	2a]
.	.	1cc
2c	1r	.
2c	.	4cc
.	.	4b-i
=13	=13	=13
2c	2F	2a
2B-	2G	2g
1A	2A	1cc
.	2c	.
=14	=14	=14
1G	2d	1b-i
.	2B-	.
[1FN	[1cN	1aN
=15	=15	=15
1F]	1c]	1r
2C	1c	1e
2E	.	.
=16	=16	=16
1D	1d	1f
[1C	1e	2r
.	.	2g
=17	=17	=17
1C]	1r	2g
.	.	2g
[1F	1c	1a
=18	=18	=18
1F]	2c	1cc
.	2c	.
[1C	2c	2.cc
.	2c	.
.	.	4b-i
=19	=19	=19
1C]	2c	2g
.	2c	1cc
1F	2A	.
.	2B-	2cc
=20	=20	=20
1A	2c	2a
.	2d	2f
1G	2e	2g
.	2e	4f
.	.	4g
=21	=21	=21
0F	2.f	1.a
.	4e	.
.	1c	.
.	.	4g
.	.	4f
=22	=22	=22
1C	1r	1e
2F	2A	1r
2G	2B-	.
=23	=23	=23
2A	1c	2f
2A	.	1a
2B-	1d	.
2B-	.	2g
=24	=24	=24
2A	2e	1a
2A	2c	.
2G	1r	2e
2G	.	[2f
=25	=25	=25
2D	2A	2f]
2C	1c	2g
2F	.	2a
2G	2G	2b-i
=26	=26	=26
2A	2F	1cc
2A	2A	.
2B-	2G	2b-i
2B-	2E	[2g
=27	=27	=27
2A	2F	4g]
.	.	4f
2A	1c	2.f
2G	.	.
.	.	4e
2G	2B-	4e
.	.	4d
=28	=28	=28
0Fl	0cl	0fl
==	==	==
*-	*-	*-
!!!RDF**kern: l=long note in original notation
!!!RDF**kern: i=editorial accidental
!!!RDF**kern: N=signum congruentiae
!!!ENC:	Chris Gage 03-06-2015
!!!END:	2015/03/13/
!!!EED:	Jesse Rodin
!!!EEV:	2016/02/22/
!!!ONB:	Translated from MusicXML and edited on 2016/02/22/ by Craig Sapp
!!muse2ps: C^@{COM}\n@{SMS} @{folio}^v95,95,150Q16
